!!!OTL: 1298. Der feine Reiter.
!!!ARE: Europa, Mitteleuropa, Deutschland
!!!SCT: E1298
!!!TXL: @@DE
!!!YEM: Copyright 1995, estate of Helmut Schaffrath.
**kern	**text
*ICvox	*
*M4/4	*
*met(c)	*
*k[]	*
*C:	*
=1	=1
!LO:TX:a:t=Sam. Scheidt, Orgeltab. 1624. fol. 183.	!
{4.e	Ei
8f	du
4g	fei-
4a	-ner
=2	=2
2g	Rei-
4g}	-ter,
{4f	du
=3	=3
4e	ed-
4e	-ler
4d	Her-
4d	-re
=4	=4
1c}	mein,
=5	=5
{4.e	Sa-
8f	-ge
4g	mir
4a	wo
=6	=6
2g	haſt_du
4g}	doch
{4f	die
=7	=7
4e	Woh-
4e	.
4d	-nung
4d	.
=8	=8
1c}	dein?
=9	=9
{4.b	"Dort
8cc	an
4dd	je
4ee	nem
=10	=10
2dd	Waſ-
4dd}	-ſer
{4cc	im
=11	=11
2b	frei-
2a	-en
=12	=12
2.g	Feld,
4g}	da
=13	=13
{4.b	hab
8cc	ich
4dd	mei-
4ee	-ne
=14	=14
2dd	Woh-
4dd}	-nun-
{4cc	-ge,
=15	=15
2b	an-
2a	-ge-
=16	=16
2.g}	-ſtellt.
{4g	im
=17	=17
2cc	grü-
2a	-nen
=18	=18
2.g}	Wald,
{4g	ſehr
=19	=19
2cc	wol
2a	ge-
=20	=20
2.g}	-ſtalt,
{4g	da
=21	=21
2cc	ſin-
4cc	-gen
4dd	die
=22	=22
2cc	Vög-
2b}	-lein
=23	=23
{2cc	jung
2a	und
=24	=24
1g}	alt!
=25	=25
{4.e	Laub
8f	und
4g	Gras
4a	iſt
=26	=26
4.g	mein
8g	Ge-
4g}	-ſpaß,
{4f	du
=27	=27
4e	wa-
4e	-cker
4d	Mäg-
4d	-de-
=28	=28
1c}	-lein!"
==	==
!!!AGN: Staende -, Soldaten - Lied, Reiter
!!!ONB: ESAC (Essen Associative Code) Database: ERK3
!!!AMT: simple quadruple
!!!AIN: vox
!!!EED: Helmut Schaffrath
!!!EEV: 1.0
!!!GTL: Staendelieder (Berufslieder). 1. Soldaten- und Kriegslieder. Landsknechts- und Reiterlieder.
!!!URL-scan: https://rosdok.uni-rostock.de/mcrviewer/recordIdentifier/rosdok_ppn745177999/iview2/phys_0189.iview2?x=-128.77276441889285&y=74.91108409757726&scale=0.5870222003877487&rotation=0&layout=singlePageLayout
!!!ENC: Anna Maria Matuszewska
!!!EEV: 2024/12/27
*-	*-
